!!!OTL: I Had the Craziest Dream
!!!MPN: Dorham, Kenny
!!!OAT: Dorham, Kenny
!!!OAL: Quiet Kenny
!!!ODL: 1959-11-13
!!!COM: Warren, Harry
!!!ODT: 1942
**kern
*ITromp
*ITrd1c2
*clefG2
*C:
*k[]
*M4/4
*MM129
=1-
4e
8g
8b
6dd
6cc#
6cc
=2
4e
[4e
4e]
4f
=3
2d
4e
8g
[8f
=4
2.f]
4r
=5
8r
8d
8f
8a
6ee
6ee-
qcc#
6dd
=6
2.cc
4b
=7
4.b
8a
4.a
8b
=8
4a
8g
[8g
4g]
4r
=9
8r
8g
8e
8f
4g
8e
8f
=10
8g
8e
8f
8g
8r
8b-
8r
8a
=11
4f
4f
8e
8d
8e
[8f
=12
2f]
2r
=13
4a
8f#
8g
[4a
12a]
12f#
12g
=14
8a
8f#
8g
8a
8r
[8cc
8cc]
8b
=15
4.b
8a
4.a
8b
=16
4a
8g
[8g
2g]
=17
8r
8e
8g
8b
8dd
8cc#
8cc
8e
=18
8r
[4.e
4e]
4f
=19
2d
4e
8g
[8f
=20
2f]
2r
=21
4e
8g
8a
4b
4cc
=22
6dd
6ee
6dd
4cc
8b
[8cc
=23
4cc]
8r
8g
4a
8r
8e
=24
4d
8r
8g
4e
8r
8g
=25||
8b
8dd
4cc
4b
4r
=26
2r
4r
8r
[8b-
=27
12b-]
12a
12g
4f
6e
6d
6c#
=28
6B-
[3A
2A]
=29
2r
6r
12d
12f
12a
12ee-
=30
8gg
8r
4r
8ee
8dd
8cc
8b
=31
8r
8e
8g
8b
8b-
8f#
8f
8e-
=32
8d
8a
8e
8d
4.g
8r
=33
4.e
8f
8g
8a
8b-
8cc
=34
8dd
8ee
8ff
8gg
24ee
24ff
24ee
8dd
8cc#
8b-
=35
4.a
8g
4f
8c#
[8e
=36
4.e]
8d
2r
=37
8f#
8g#
8a
8b
8cc
8dd
8ee
8cc
=38
4b
8a
[8dd
8dd]
8cc
8cc
8b
=39
4.b
8a
4.a
8b
=40
8g
[8g
4g]
2r
=41
8r
8dd
4r
8b
8g
4a
=42
4b
4b
2r
=43
2r
4r
8r
16ee-
16dd
=44
8cc
8b
8b-
8a
8a-
8cc
8g
8f
=45
8e
8g
12r
12cc#
12dd
8cc#
8b-
8a
8g
=46
8f
8cc
8a
8f
4e
8d
[8c
=47
4c]
8r
8g
4e
8r
8a
=48
12d
12f
12a
12cc
12dd
12ee
8.dd
16cc
8.b
16a
=49||
8g
8e
12g
12b
12dd
8.cc
16g
8.e
16c
=50
8d
8e
4r
8r
[4.a
=51
4a]
q0.332031f
q0.332031d
q0.335938f
4c#
8r
16a
16g
=52
8f
[8f
4f]
2r
=53
4r
12d
12f
12a
12c#
12f
12a
16r
16d
16f
16a
=54
4c#
8r
16f
16a
4c
8r
8b
=55
4b
8e
8c
8e-
8d
8r
8a
=56
4a
12d
12c#
12c
8B
4.a
=57
2g
2r
=58
16e
16f#
16g
16a
16b
16ee-
16dd
16cc#
16cc
16b
16b-
16a
4g
=59
4a
8r
8f
4g
8a
[8f
=60
4f]
4r
2r
=61
4cc
8f#
8g
8a
8b
8cc
8dd
=62
8b
[8b
4b_
8b]
8a
8dd
8cc
=63
2b
8r
8a
8a
8dd
=64
6b
6a
6a
6a
6g
6g
=65
4g
8r
8cc
2r
=66
1r
=67
4r
8r
8ee
8gg
8ff
8ee
8dd
=68
8cc
8a-
8g
8f
4b-
8a-
[8g
=69
4.g]
8a
8b
4.cc
=70
4d
8f
8a
4r
8c
8B
=71
[1c
=72
4c]
8r
8e
8d
4.e
=73
4G
4r
2r
==
*-
!!!OCL: Hubert Leveille Gauvin
!!!ENC: Hubert Leveille Gauvin
!!!END: 2018-04-15
